public/integrations/vscode.svg

<svg width="47" height="48" viewBox="0 0 47 48" version="1.1" xmlns="http://www.w3.org/2000/svg" xmlns:xlink="http://www.w3.org/1999/xlink">
<title>Group</title>
<desc>Created using Figma</desc>
<g id="Canvas" transform="translate(-16691 621)">
<g id="Group">
<g id="Vector">
<use xlink:href="#path0_fill" transform="translate(16691 -621)" fill="#2E76B9"/>
</g>
</g>
</g>
<defs>
<path id="path0_fill" d="M 34.7586 0L 16.5517 19.8621L 4.41434 10.4839L 0 13.2679L 0 36.4138L 4.41434 39.1713L 16.5517 29.7931L 34.7586 48L 46.3448 43.0345L 46.3448 6.06952L 34.7586 0ZM 4.96552 31.4483L 4.96552 16.5517L 11.5862 24.8276L 4.96552 31.4483ZM 23.1724 24.8276L 34.7586 14.8966L 34.7586 34.7586L 23.1724 24.8276Z"/>
</defs>
</svg>

<svg width="47" height="48" xmlns="http://www.w3.org/2000/svg" xmlns:xlink="http://www.w3.org/1999/xlink"><use xlink:href="#a" fill="#2E76B9"/><defs><path id="a" d="M34.759 0 16.552 19.862 4.414 10.484 0 13.268v23.146l4.414 2.757 12.138-9.378L34.759 48l11.586-4.965V6.07L34.759 0ZM4.966 31.448V16.552l6.62 8.276-6.62 6.62Zm18.206-6.62 11.587-9.931v19.862l-11.587-9.931Z"/></defs></svg>
